/JOB
//NAME 104
//POS
///NPOS 20,20,0,0,0,0
///TOOL 1
///POSTYPE PULSE
///PULSE
C00000=-38827,77959,84135,86668,111950,-78782,-86054
///TOOL 0
C00001=-41043,79289,93070,92011,115087,-81465,-81115
///TOOL 1
C00002=-40071,82526,88281,91081,106963,-79719,-89348
///TOOL 0
C00003=-41414,82516,95107,95045,112297,-81946,-83471
///TOOL 1
C00004=-46066,68940,97567,73041,118822,-85291,-74294
///TOOL 0
C00005=-39613,68104,93060,77395,126407,-85984,-69505
///TOOL 1
C00006=-5943,75912,87069,84727,111832,-100623,-83863
///TOOL 0
C00007=-1023,71963,76442,83734,125876,-98697,-77905
///TOOL 1
C00008=-22041,75310,97558,81964,111299,-97741,-81333
///TOOL 0
C00009=-17262,71541,88369,79522,125380,-96910,-74512
///TOOL 1
C00010=-26305,75303,99473,82228,113973,-96391,-80953
///TOOL 0
C00011=-26326,71342,92555,76964,123414,-94549,-73138
///TOOL 1
C00012=-25524,75285,97292,81856,111443,9364,-81358
///TOOL 0
C00013=-21084,71554,88409,79693,125401,9836,-74522
///TOOL 1
C00014=-9460,76102,87037,84806,111717,6418,-84035
///TOOL 0
C00015=-4768,71952,77484,83519,125853,7382,-77650
///TOOL 1
C00016=-6265,76310,84124,85495,111817,6336,-84702
///TOOL 0
C00017=-1451,72048,74279,84583,125972,7484,-78475
///TOOL 1
C00018=-46066,68940,97567,73041,118822,-85291,-74294
///TOOL 0
C00019=-39613,68104,93060,77395,126407,-85984,-69505
BC00000=1998
BC00001=1998
BC00002=-164335
BC00003=-164335
BC00004=-160315
BC00005=-160315
BC00006=-160314
BC00007=-160314
BC00008=-160314
BC00009=-160314
BC00010=-160314
BC00011=-160314
BC00012=-160314
BC00013=-160314
BC00014=-160314
BC00015=-160314
BC00016=-160314
BC00017=-160314
BC00018=-160315
BC00019=-160315
//INST
///DATE 2019/09/19 15:34
///ATTR SC,RW
///GROUP1 RB2,BS2
///GROUP2 RB1,BS1
NOP
MOVJ C00000 BC00000 VJ=20.00  +MOVJ C00001 BC00001 VJ=20.00
MOVJ C00002 BC00002 VJ=20.00  +MOVJ C00003 BC00003 VJ=20.00
MOVJ C00004 BC00004 VJ=20.00  +MOVJ C00005 BC00005 VJ=20.00
MOVJ C00006 BC00006 VJ=20.00  +MOVJ C00007 BC00007 VJ=20.00
DOUT OT#(129) ON
DOUT OT#(133) ON
WAIT IN#(129)=ON
WAIT IN#(133)=ON
MOVL C00008 BC00008 V=50.0  +MOVL C00009 BC00009 V=50.0
MOVL C00010 BC00010 V=50.0  +MOVL C00011 BC00011 V=50.0
MOVJ C00012 BC00012 VJ=20.00  +MOVJ C00013 BC00013 VJ=20.00
MOVL C00014 BC00014 V=50.0  +MOVL C00015 BC00015 V=50.0
MOVL C00016 BC00016 V=10.0  +MOVL C00017 BC00017 V=10.0
DOUT OT#(129) OFF
DOUT OT#(133) OFF
WAIT IN#(129)=OFF
WAIT IN#(133)=OFF
MOVJ C00018 BC00018 VJ=20.00  +MOVJ C00019 BC00019 VJ=20.00
DOUT OT#(137) ON
END
